src/pos-icons/hammer.svg

<svg height="24" viewBox="0 0 24 24" width="24" xmlns="http://www.w3.org/2000/svg"><path d="m2 19.63 11.43-11.43-.71-.7 1.42-1.43-2.14-2.18c1.2-1.19 3.09-1.19 4.27 0l3.6 3.61-1.42 1.41h2.84l.71.71-3.55 3.59-.71-.71v-2.88l-1.47 1.42-.71-.71-11.43 11.43z"/></svg>

<?xml version="1.0" encoding="UTF-8"?><!DOCTYPE svg PUBLIC "-//W3C//DTD SVG 1.1//EN" "http://www.w3.org/Graphics/SVG/1.1/DTD/svg11.dtd"><svg xmlns="http://www.w3.org/2000/svg" xmlns:xlink="http://www.w3.org/1999/xlink" version="1.1" id="mdi-hammer" width="24" height="24" viewBox="0 0 24 24"><path d="M2 19.63L13.43 8.2L12.72 7.5L14.14 6.07L12 3.89C13.2 2.7 15.09 2.7 16.27 3.89L19.87 7.5L18.45 8.91H21.29L22 9.62L18.45 13.21L17.74 12.5V9.62L16.27 11.04L15.56 10.33L4.13 21.76L2 19.63Z" /></svg>
